static/sponsors/Figma.svg

<svg width="86" height="123" viewBox="0 0 86 123" fill="none" xmlns="http://www.w3.org/2000/svg">
<path fill-rule="evenodd" clip-rule="evenodd" d="M10.4477 42.2335C4.15799 38.1352 0 31.0394 0 22.9725C0 10.2851 10.2851 0 22.9725 0H62.3317C75.019 0 85.3041 10.2851 85.3041 22.9725C85.3041 31.0394 81.1461 38.1352 74.8564 42.2335C81.1461 46.3318 85.3041 53.4276 85.3041 61.4945C85.3041 74.1819 75.019 84.467 62.3317 84.467H61.9129C55.9155 84.467 50.4549 82.1687 46.3637 78.4049V99.8068C46.3637 112.636 35.8535 122.989 23.0766 122.989C10.4153 122.989 0 112.729 0 100.016C0 91.9494 4.15784 84.8537 10.4474 80.7553C4.15784 76.657 0 69.5613 0 61.4945C0 53.4276 4.15799 46.3318 10.4477 42.2335ZM46.3637 61.4945C46.3637 70.0822 53.3253 77.0438 61.9129 77.0438H62.3317C70.9193 77.0438 77.881 70.0822 77.881 61.4945C77.881 52.9069 70.9193 45.9452 62.3317 45.9452H61.9129C53.3253 45.9452 46.3637 52.9069 46.3637 61.4945ZM38.9405 45.9452H22.9725C14.3848 45.9452 7.42318 52.9069 7.42318 61.4945C7.42318 70.0648 14.3566 77.0156 22.9202 77.0437L22.9445 77.0437L38.9405 77.0437V45.9452ZM22.9725 84.467C22.9551 84.467 22.9377 84.467 22.9203 84.4669C14.3566 84.4951 7.42318 91.4459 7.42318 100.016C7.42318 108.578 14.4629 115.565 23.0766 115.565C31.8059 115.565 38.9405 108.484 38.9405 99.8068V84.467H22.9725ZM38.9405 38.5218H22.9725C14.3848 38.5218 7.42318 31.5601 7.42318 22.9725C7.42318 14.3848 14.3848 7.42318 22.9725 7.42318H38.9405V38.5218ZM62.3317 38.5218H46.3637V7.42318H62.3317C70.9193 7.42318 77.881 14.3848 77.881 22.9725C77.881 31.5601 70.9193 38.5218 62.3317 38.5218Z" fill="black"/>
</svg>

<svg width="86" height="123" fill="none" xmlns="http://www.w3.org/2000/svg"><path fill-rule="evenodd" clip-rule="evenodd" d="M10.448 42.233C4.158 38.136 0 31.04 0 22.973 0 10.284 10.285 0 22.973 0h39.359c12.687 0 22.972 10.285 22.972 22.973 0 8.066-4.158 15.162-10.448 19.26 6.29 4.099 10.448 11.195 10.448 19.262 0 12.687-10.285 22.972-22.972 22.972h-.42a22.89 22.89 0 01-15.548-6.062v21.402c0 12.829-10.51 23.182-23.287 23.182C10.415 122.989 0 112.729 0 100.016c0-8.067 4.158-15.162 10.447-19.26C4.157 76.656 0 69.56 0 61.494c0-8.067 4.158-15.163 10.448-19.261zm35.916 19.262c0 8.587 6.961 15.549 15.549 15.549h.419c8.587 0 15.549-6.962 15.549-15.55 0-8.587-6.962-15.549-15.55-15.549h-.418c-8.588 0-15.55 6.962-15.55 15.55zm-7.423-15.55H22.971c-8.587 0-15.549 6.962-15.549 15.55 0 8.57 6.934 15.52 15.497 15.549h16.021V45.945zM22.971 84.467h-.052c-8.563.028-15.497 6.979-15.497 15.549 0 8.562 7.04 15.549 15.654 15.549 8.729 0 15.863-7.081 15.863-15.758v-15.34H22.974zM38.94 38.522H22.974c-8.588 0-15.55-6.962-15.55-15.55 0-8.587 6.962-15.549 15.55-15.549H38.94v31.099zm23.392 0H46.364V7.423h15.968c8.587 0 15.549 6.962 15.549 15.55 0 8.587-6.962 15.549-15.55 15.549z" fill="#000"/></svg>
